X:482
T:The Morning Star
M:C|
L:1/8
K:G
"G"B2 BA "Em"BGEF|"G"G2 Bd "C"e2 dc|"Em"B2 BA BGEF|"G"GB"D"AF "G"G2 G2|
"G"B2 BA "Em"BGEF|"G"GABd "C"e2 dc|"Em"B2 BA BGEF|"G"GB"D"AF "G"G2 G2||
|:"Em"B/c/d ef g2 eg|"D"fedf "Em"edBA|B/c/d ef g2 eg|"D"fedf "Em"e2 e2|
B/c/d ef g2 eg|"D"fedf "Em"edBA|Bdef g2 fe|"D"faaf "Em"gfed|]
